assets/table/table-fill.svg

<svg id="Raw" xmlns="http://www.w3.org/2000/svg" viewBox="0 0 256 256">
  <rect width="256" height="256" fill="none"/>
  <path d="M224.00586,48h-192a7.99977,7.99977,0,0,0-8,8V192a16.01833,16.01833,0,0,0,16,16h176a16.01833,16.01833,0,0,0,16-16V56A7.99977,7.99977,0,0,0,224.00586,48Zm-184,64h40v32h-40Zm56,0H216.01l.00244,32H96.00586Zm-56,48h40v32h-40Zm176,32h-120V160H216.01367l.00244,31.99951Z"/>
</svg>

<svg xmlns="http://www.w3.org/2000/svg" viewBox="0 0 256 256"><rect width="256" height="256" fill="none"/><path d="M224,48H32a8,8,0,0,0-8,8V192a16,16,0,0,0,16,16H216a16,16,0,0,0,16-16V56A8,8,0,0,0,224,48ZM40,112H80v32H40Zm56,0H216v32H96ZM40,160H80v32H40Zm176,32H96V160H216v32Z"/></svg>
